X:478
T: JETZT FUEHR ICH MEINEN SCHLENDERGANG
N: E1734A
O: Europa, Mitteleuropa, Deutschland, Hessen, Lahnkreis, Hennethal
R: Scherz - Lied
M: 2/4
L: 1/16
K: C
C2 | G2G2A2G2 | G2F2F2
D2 | F2F2G2F2 | E4z2
C2 | G2G2A2G2 | G2F2F2
D2 | F2F2G2F2 | E4z2
C2 | E6F2 | G6
G2 | A2B2c2A2 | A2G2z2
G2 | G2F2F2F2 | F2E2E2
E2 | D2G2G3F | F2E2z2

